X:1
T:Bill Clement
C:Muriel A Johnstone
R:Strathspey
%Q:128
K:D
M:4/4
L:1/16
|:A2|((3FGA) d3d f3e d3A|((3Bcd) g3f eA3 A3G|((3FGA) d3d f3e d2g2|((3fga) e3d B2A2 B2d2|
((3FGA) d3d f3e d3A|((3Bcd) g3f eA3 A3G|((3FGA) d3d f3e d2g2|((3fga) e3d Ad3 d2:|
|:g2|((3fga) a3b d3c d2D2|E=c3 =c3d e2d2 e2g2|((3fga) a3b d2c2 d2D2|E=c3 =c3e d4 d2g2|
((3fga) a3b d3c d2D2|((3GAB) g3f e2d2 e2f2|((3FGA) d3d f3e d2g2|((3fga) e3d Ad3 d2:|
